X:1
T:Swan Lake
T:Swan Lake
T:Pyotr Ilyich Tchaikovsky
C:Pyotr Ilyich Tchaikovsky
%%score { 1 | 2 }
L:1/8
Q:1/4=100
M:4/4
K:D
V:1 treble nm="Piano" snm="Pno"
V:2 bass 
V:1
 z4 z4 | z8 | (f4 Bcde | f3 d f3 d) | f3 (B dBFd | (B4) z) edc | f4 Bcde | f3 d f3 d | f3 B dBFd | %9
 B2 z2 z2 B2 |!mp!!<(! c2 d2 e2 fg | a3 g f2 ga | b3 a g2 ab!<)!!f! |!ff!!>(! c'3 b fdcB!>)!!p! | %14
!p!!<(! c2 d2 e2 fg | a3 g f2 ga | b3 a g2 ab!<)!!f! |!f! =c'3 g e2 gc' | c'3 ^g c'3 f | f4 Bcde | %20
 f3 d f3 d | f3 B dBFd | B4 z edc | f4 Bcde | f3 d f3 d | f3 B dBFd | B4 z4 | z8 | z8 | z8 | z8 | %31
 z8 |] %32
V:2
!mp! B,DFD B,DFD | B,DFD B,DFD | B,DFD B,EGE | B,DFD B,DFD | B,DFD G,B,F,^A, | B,DFD B,EGE | %6
 B,DFD B,EGE | B,DFD B,DFD | B,DFD G,B,F,^A, | B,DFD B,2 z2 | A,CEC G,CEC | F,A,CA, F,A,CA, | %12
 E,G,B,G, E,G,B,G, | C,=F,^G,F, ^F,^A,CA, | A,CEC G,CEC | F,A,CA, F,A,CA, | E,G,B,G, E,G,B,G, | %17
 =C,E,G,E, C,E,G,E, |!f!!>(! C,=F,^G,F, ^F,^A,CA, | B,DFD B,EG!mp!E!>)! | B,DFD B,DFD | %21
 B,DFD G,B,F,^A, | B,DFD B,EGE | B,DFD B,EGE | B,DFD B,DFD | B,DFD G,B,F,^A, | B,DFD B,4 | z8 | %28
 z8 | z8 | z8 | z8 |] %32

